X:18
T:The Exile's Jig
N:Joué avec Oliver Le Bourdonnec et Olivier Peau
D:Alan Stivell: Renaissance de la harpe celtique (#15.1)
D:Réalta: Open the Door for Three (#3.2)
R:Slip jig
Z:Gwen 2019-03-02
M:9/8
Q:3/8=90
K:Em
|: edB B2A G2E | E2E eee efg | e2d B2A G2A | B2d d2B def :|
| e2f gfe fed | edB e2d edB | e2f gfe fed | BAB d2B def |
| e2f gfe fed | edB e2d efg | agf gfe fed | BAB d2B AFB ||

